X:1
T:Schwanengesang, D.957
T:Aufenthalt
T:Schwanengesang (D.957)
T:5. Aufenthalt
T:Franz Schubert
T:Ludwig Rellstab
T:OpeScore (CC0)
T:OpeScore (CC0)
T:OpeScore (CC0)
T:OpeScore (CC0)
T:OpeScore (CC0)
T:OpeScore (CC0)
C:Franz Schubert
Z:Ludwig Rellstab
Z:OpeScore (CC0)
%%score 1 { 2 | ( 3 4 ) }
L:1/8
Q:1/4=95
M:2/4
K:G
V:1 treble nm="Voice"
V:2 treble nm="Piano"
V:3 bass 
V:4 bass 
V:1
"^Nicht zu geschwind, doch kräftig" z4 | z4 | z4 | z4 | z4 | z4 | E2 E3/2 E/ | B,2 z2 | F2 G F | %9
w: ||||||Rau- schen- der|Strom,|brau- sen- der|
 E2 z2 | B2 A B | c3 A | F2 B2 | G2 z2 | e2 e3/2 e/ | (e2 E) z | e2 e3/2 e/ | (e2 E) z | B2 A B | %19
w: Wald,|star- ren- der|Fels mein|Auf- ent-|halt,|rau- schen- der|Strom, _|brau- sen- der|Wald, _|star- ren- der|
 c3 A | B2 B,2 | E2 z2 | z4 | z4 | z4 | z4 | B,2 G3/2 G/ | F2 B, B, | B,3 A | G2 z2 | B,2 B3/2 B/ | %31
w: Fels mein|Auf- ent-|halt.|||||Wie sich die|Wel- le an|Wel- le|reiht,|flie- ssen die|
 A2 B, B, | B,2 c c | B2 z2 | d4 | d2 d2 | e4- | e4 | ^c4 | z2 ^c2 | d2 B2 | ^c2 ^A A | B4 | %43
w: Thrä- nen mir|e- wig er-|neut,|flie-|ssen die|Thrä-||nen|mir|e- wig,|e- wig er-|neut,|
 g2 g g | f2 e e | d2 ^c c | B2 z2 | z4 | z4 | z4 | z4 | z4 | z4 | z4 | z4 |!p! G2 B3/2 c/ | %56
w: flie- ssen die|Thrä- nen mir|e- wig er-|neut.|||||||||Hoch in den|
 d2 BG | e2 e3/2 e/ | A3 A | !>!c2 B2 | A2 B c | (d2 e) c | B2 z2 | e2 g3/2 f/ | e2 E2 | %65
w: Kro- nen _|wo- gend sich's|regt, so|un- auf-|hör- lich mein|Her- * ze|schlägt,|hoch in den|Kro- nen|
 e2 g3/2 f/ | e3 B | !>!c2 B2 | A2 B c | (d2 e) c | B2 z d | !>!_e2 d2 | c2 B c | d4- | %74
w: wo- gend sich's|regt, so|un- auf-|hör- lich mein|Her- * ze|schlägt, so|un- auf-|hör- lich mein|Her-|
 (3(d=ec (3Bc) A | G2 z2 | z4 | z4 | z4 | z4 | z2 z B, | B,3 G | F2 B, B, | B,3 A | G2 z2 | %85
w: * * * * * ze|schlägt.|||||Und|wie des|Fel- sen ur-|al- tes|Erz,|
 B,2 B B | A2 B,2 | B,2 c c | B2 z2 | d4 | d2 d2 | e4- | e4 | ^c4 | z4 | d2 B2 | ^c2 ^A A | B2 z2 | %98
w: e- wig der-|sel- be|blei- bet mein|Schmerz,|e-|wig der-|sel-||be||blei- bet,|blei- bet mein|Schmerz,|
 g2 g3/2 g/ | f2 e2 | d2 ^c c | B2 z2 | z4 | z4 | z4 | z4 | z4 | z4 | z4 | z4 | E2 E3/2 E/ | %111
w: e- wig der-|sel- be|blei- bet mein|Schmerz.|||||||||Rau- schen- der|
 B,2 z2 | F2 G3/2 F/ | E2 z2 | B2 A3/2 B/ | c3 A | F2 B2 | G2 z2 | e2 e3/2 e/ | (e2 E) z | %120
w: Strom,|brau- sen- der|Wald,|star- ren- der|Fels mein|Auf- ent-|halt,|rau- schen- der|Strom, _|
 e2 e3/2 e/ | (e2 E) z | e2 e3/2 e/ |!fff! g4- | g4- | g2 z2 | G2 G3/2 A/ | B4- | B2 z2 | B4- | %130
w: brau- sen- der|Wald, _|star- ren- der|Fels,|_||rau- schen- der|Strom,|_|brau-|
 Be g f | e3 B | AG AB | E4- | E2 z2 | z4 | z4 | z4 | z4 | z4 | !fermata!z4 |] %141
w: * * sen- der|Wald mein|Auf- * ent- *|halt.|_|||||||
V:2
!p! (3[G,B,E][G,B,E][G,B,E] (3[G,B,E][G,B,E][G,B,E] | %1
 (3[G,B,E][G,B,E][G,B,E] (3[G,B,E][G,B,E][G,B,E] | %2
!<(! (3[G,B,E][G,B,E][G,B,E] (3[G,B,E][G,B,E][G,B,E]!<)! | %3
!>(! (3[F,A,CE][F,A,CE][F,A,CE] (3[F,A,CE][F,A,CE][F,A,CE]!>)! | %4
 (3[G,B,E][G,B,E][G,B,E] (3[F,A,E][F,A,E][F,A,E] | %5
 (3[F,B,E][F,B,E][F,B,E] (3[F,B,^D][F,B,D][F,B,D] | %6
 (3[G,B,E][G,B,E][G,B,E] (3[G,B,E][G,B,E][G,B,E] | %7
 (3[A,B,^D][A,B,D][A,B,D] (3[A,B,D][A,B,D][A,B,D] | %8
 (3[A,B,^D][A,B,D][A,B,D] (3[A,B,D][A,B,D][A,B,D] | %9
 (3[G,B,E][G,B,E][G,B,E] (3[G,B,E][G,B,E][G,B,E] | %10
 (3[G,B,E][G,B,E][G,B,E] (3[G,B,E][G,B,E][G,B,E] | (3[F,CE][F,CE][F,CE] (3[F,A,E][F,A,E][F,A,E] | %12
 (3[F,B,E][F,B,E][F,B,E] (3[F,B,^D][F,B,D][F,B,D] | %13
 (3[G,B,E][G,B,E][G,B,E] (3[G,B,E][G,B,E][G,B,E] | %14
!<(! (3[^G,=DE][G,DE]!<)![G,DE]!>(! (3[G,DE][G,DE]!>)![G,DE] | %15
 (3[A,^CE][A,CE][A,CE] (3[A,CE][A,CE][A,CE] | %16
!<(! (3[A,=CE][A,CE][A,CE]!<)!!>(! (3[A,CE][A,CE][A,CE]!>)! | %17
 (3[^G,B,E][G,B,E][G,B,E] (3[G,B,E][G,B,E][G,B,E] | %18
 (3[=G,B,E][G,B,E][G,B,E] (3[G,B,E][G,B,E][G,B,E] | (3[F,CE][F,CE][F,CE] (3[F,A,E][F,A,E][F,A,E] | %20
 (3[F,B,E][F,B,E][F,B,E] (3[F,B,^D][F,B,D][F,B,D] | (3[G,B,E][G,B,E][G,B,E] (3[B,EG][B,EG][B,EG] | %22
 (3[CEG]!>(![CEG][CEG] (3[CEG][CEG][CEG] | (3[^CEG]!>)![CEG][CEG] (3[CEF][CEF][CEF] | %24
 (3[B,^DF]B,B, (3B,B,B, | (3B,B,B, (3B,B,B, |!p!!>(! (3(B,[EG])!>)![B,EG] (3[B,EG][B,EG][B,EG] | %27
 (3[B,^DF]B,B, (3B,B,B, |!>(! (3(B,[FA])!>)![B,FA] (3[B,FA][B,FA][B,FA] | (3[B,EG]B,B, (3B,B,B, | %30
!>(! (3(B,[GB])!>)!"_cresc."[GB] (3[GB][GB][GB] | (3([FA]B,).B, (3B,B,B, | %32
!>(! (3(B,[CAc])[CAc] (3[CAc][CAc][CAc]!>)! | (3[B,GB]B,B, (3B,B,B, | %34
!f! (3[DBd]!<(![DBd][DBd] (3[DBd][DBd][DBd] | (3[DBd][DBd][DBd] (3[DBd][DBd]!<)![DBd] | %36
!>(! (3[E^ce][Ece][Ece] (3[Ece][Ece][Ece] | (3[E^ce][Ece][Ece] (3[Ece][Ece]!>)![Ece] | %38
 (3[E^ce][Ece][Ece] (3[Ece][Ece][Ece] | (3[EF^c][EFc][EFc] (3[EFc][EFc][EFc] | %40
 (3[DFd][DFd][DFd] (3[DFB][DFB][DFB] | (3[EF^c][EFc][EFc] (3[^CF^A][CFA][CFA] | %42
!<(! (3[DFB][DFB][DFB] (3[DFB][DFB][DFB]!<)! |!>(! (3[^CGB][CGB][CGB] (3[DGB][DGB][EGB]!>)! | %44
 (3[DFB][DFB][DFB] (3[^CGB][CGB][CGB] | (3[DFB][DFB][DFB] (3[EF^A][EFA][EFA] | %46
 (3[DFB][B,B][B,B] (3[B,B][B,B][B,B] | (3([B,B][=CB])[CB] (3[CB][CB][CB] | %48
!<(! (3([CB][^CB])[CB] (3[CB][CB][CB]!<)! |!>(! (3[DB][DB][DB] (3[EF^A][EFA][EFA]!>)! | %50
 (3[DFB][B,B][B,B] (3[B,B][B,B][B,B] | (3([B,B][=CB])[CB] (3[CB][CB][CB] | %52
 (3([CB]"_dim."[^CB])[CB] (3[CB][CB][CB] | (3[DGB][DGB][DGB] (3[=CDFA][CDFA][CDFA] | %54
 (3[B,DG][B,DG][B,DG] (3[B,DG][B,DG][B,DG] |!p! (3[DGB][DGB][DGB] (3[DGB][DGB][DGB] | %56
 (3[DGB][DGB][DGB] (3[DGB][DGB][DGB] | (3[^CGA][CGA][CGA] (3[CGA][CGA][CGA] | %58
 (3[^CGA][CGA][CGA] (3[CGA][CGA][CGA] | (3[_EFA][EFA][EFA] (3[EFB][EFB][EFB] | %60
 (3[DFc][DFc][DFc] (3[DGB][DGB][DGB] | (3[DGA][DGA][DGA] (3[DFA][DFA][DFA] | %62
 (3[DGB][DGB][DGB] (3[DGB][DGB][DGB] |!mf! (3[GB][GB][GB] (3[GB][GB][GB] | %64
 (3[GB][GB][GB] (3[GB][GB][GB] |!<(! (3[Ac][Ac][Ac]!<)!!>(! (3[Ac^d][Acd]!>)![Acd] | %66
 (3[GBe][GBe][GBe] (3[GB][GB][GB] | (3[_EFA][EFA][EFA] (3[EFB][EFB][EFB] | %68
 (3[DFc][DFc][DFc] (3[DGB][DGB][DGB] | (3[DGA][DGA][DGA] (3[DFA][DFA][DFA] | %70
 (3[DGB][DGB][DGB] (3[DGB][DGB][DGB] |!f! (3[CFA]!<(![CFA][CFA] (3[DFA][DFA][DFA]!<)! | %72
!>(! (3[_EFA][EFA][EFA] (3[DGB][DGB]!>)![DGB] | (3[DGA][DGA][DGA] (3[DGA][DGA][DGA] | %74
 (3[DFA][DFA][DFA] (3[CDFA][CDFA][CDFA] | (3[B,DG][B,DG][B,DG] (3[B,DG][B,DG][B,DG] | %76
 (3[B,DG][B,DG][B,DG] (3[B,EG][B,EG][B,EG] | (3[CEG]!>(![CEG][CEG] (3[CEG][CEG][CEG] | %78
 (3[^CEG][CEG][CEG] (3[CEF][CEF][CEF]!>)! | (3[B,^DF]B,B,!p! (3B,B,B, | (3B,B,B, (3B,B,B, | %81
 (3(B,[EG])[B,EG] (3[B,EG][B,EG][B,EG] | (3[B,^DF]B,B, (3B,B,B, | %83
 (3(!>!B,[FA])[B,FA] (3[B,FA][B,FA][B,FA] | (3[B,EG]B,B, (3B,B,B, | %85
 (3(!>!B,[GB])[GB] (3[GB][GB][GB] | (3([FA]B,).B, (3B,B,B, | %87
 (3(!>!B,[CAc])[CAc]"_cresc." (3[CAc][CAc][CAc] | (3[B,GB]B,B, (3B,B,B, | %89
!f! (3[DBd]!<(![DBd][DBd] (3[DBd][DBd][DBd] | (3[DBd][DBd][DBd] (3[DBd][DBd][DBd]!<)! | %91
!>(! (3[E^ce][Ece][Ece] (3[Ece][Ece][Ece] | (3[E^ce][Ece][Ece] (3[Ece][Ece][Ece]!>)! | %93
 (3[E^ce][Ece][Ece] (3[Ece][Ece][Ece] | (3[EF^c][EFc][EFc] (3[EFc][EFc][EFc] | %95
 (3[DFd][DFd][DFd] (3[DFB][DFB][DFB] | (3[EF^c][EFc][EFc] (3[^CF^A][CFA][CFA] | %97
!<(! (3[DFB][DFB][DFB] (3[DFB][DFB][DFB]!<)! |!>(! (3[^CGB][CGB][CGB] (3[DGB][DGB][EGB]!>)! | %99
 (3[DFB][DFB][DFB] (3[^CGB][CGB][CGB] | (3[DFB][DFB][DFB] (3[EF^A][EFA][EFA] | %101
 (3[DFB][B,B][B,B] (3[B,B][B,B][B,B] | (3([B,B][=CB])[CB] (3[CB][CB][CB] | %103
 (3([CB][^CB])[CB] (3[CB][CB][CB] | (3[DFB][DFB][DFB] (3[EF^A][EFA][EFA] | %105
 (3[DFB][B,B][B,B] (3[B,B][B,B][B,B] | (3([B,B][=CB])[CB] (3[CB][CB][CB] | %107
!<(! (3([EB][E^A])[EA] (3[EA][EA][EA]!<)! |!>(! (3[EGB][EGB][EGB]!>)!"_dim." (3[CE=A][CEA][CEA] | %109
 (3[B,EG][B,EG][B,EG] (3[A,B,^DF][A,B,DF][A,B,DF] | %110
 (3[G,B,E][G,B,E][G,B,E] (3[G,B,E][G,B,E][G,B,E] | %111
 (3[A,B,^D][A,B,D][A,B,D] (3[A,B,D][A,B,D][A,B,D] | %112
 (3[A,B,^D][A,B,D][A,B,D] (3[A,B,D][A,B,D][A,B,D] | %113
 (3[G,B,E][G,B,E][G,B,E] (3[G,B,E][G,B,E][G,B,E] | %114
 (3[G,B,E][G,B,E][G,B,E] (3[G,B,E][G,B,E][G,B,E] | (3[F,CE][F,CE][F,CE] (3[F,A,E][F,A,E][F,A,E] | %116
 (3[F,B,E][F,B,E][F,B,E] (3[F,B,^D][F,B,D][F,B,D] | %117
 (3[G,B,E][G,B,E][G,B,E] (3[G,B,E][G,B,E][G,B,E] | %118
!<(! (3[^G,=DE][G,DE][G,DE]!<)!!>(! (3[G,DE][G,DE]!>)![G,DE] | %119
 (3[A,^CE][A,CE][A,CE] (3[A,CE][A,CE][A,CE] | %120
!<(! (3[A,=CE][A,CE]!<)![A,CE]!>(! (3[A,CE][A,CE]!>)![A,CE] | %121
"_cresc." (3[^G,B,E][G,B,E][G,B,E] (3[G,B,E][G,B,E][G,B,E] | %122
 (3[=G,B,E][G,B,E][G,B,E] (3[G,B,E][G,B,E][G,B,E] | %123
 (3[G,C_E]!>(![G,CE][G,CE] (3[G,CE][G,CE][G,CE]!>)! | (3[G,C_E][G,CE][G,CE] (3[G,CE][G,CE][G,CE] | %125
 (3[G,C_E][G,CE][G,CE] (3[G,CE][G,CE][G,CE] |"_dim." (3[G,_E][G,E][G,E] (3[G,E][G,E][G,E] | %127
 (3[A,^D][A,D][A,D] (3[G,=E][G,E][G,E] | (3[F,B,E][F,B,E][F,B,E] (3[F,B,^D][F,B,D][F,B,D] | %129
 (3[G,B,E][G,B,E][G,B,E] (3[G,B,E][G,B,E][G,B,E] | %130
 (3[G,B,E][G,B,E][G,B,E] (3[G,B,E][G,B,E][G,B,E] | %131
 (3[G,B,E][G,B,E][G,B,E] (3[G,B,E][G,B,E][G,B,E] | %132
!>(! (3[F,A,CE][F,A,CE][F,A,CE] (3[F,A,CE][F,A,CE][F,A,CE]!>)! | %133
 (3[G,B,E][G,B,E][G,B,E] (3[G,B,E][G,B,E][G,B,E] | %134
 (3[G,B,E][G,B,E][G,B,E] (3[G,B,E][G,B,E][G,B,E] | %135
!<(! (3[G,B,E][G,B,E][G,B,E] (3[G,B,E][G,B,E][G,B,E]!<)! | %136
!>(! (3[F,A,CE][F,A,CE][F,A,CE] (3[F,A,CE][F,A,CE][F,A,CE]!>)! | %137
 (3[G,B,E][G,B,E][G,B,E] (3[G,B,E][G,B,E][G,B,E] | %138
 (3[G,B,E][G,B,E][G,B,E] (3[G,B,E][G,B,E][G,B,E] | [G,B,E]4- | !fermata![G,B,E]4 |] %141
V:3
 B,,4- | (B,,E,G,F,) | (E,3 B,, | A,,G,,A,,B,,) | E,,2 C,,2 | B,,,4 | E,,2 z2 | F,,2 F,,>F,, | %8
 B,,,2 z2 | E,,2 E,,>F,, | G,,2 z2 | A,,2 B,,>C, | B,,2 B,,,2 | E,,2 z2 | z4 | %15
 [E,,E,]2 [E,,E,]>[E,,E,] | [E,,E,]2 z2 | [E,,E,]2 [E,,E,]>[E,,E,] | [E,,E,]2 z2 | A,,2 B,,>C, | %20
 B,,2 B,,,2 | E,,2 E,,2 | (([A,,,A,,]4 | [^A,,,^A,,]4)) | (3[B,,,B,,]B,,B,, (3B,,B,,B,, | %25
 (3B,,B,,B,, (3B,,B,,B,, | (3(B,,[E,G,])[B,,E,G,] (3[B,,E,G,][B,,E,G,][B,,E,G,] | %27
 (3[B,,^D,F,]B,,B,, (3B,,B,,B,, | (3(B,,[F,A,])[B,,F,A,] (3[B,,F,A,][B,,F,A,][B,,F,A,] | %29
 (3[B,,E,G,]B,,B,, (3B,,B,,B,, | (3(B,,[G,B,])[B,,G,B,] (3[B,,G,B,][B,,G,B,][B,,G,B,] | %31
 (3([B,,F,A,]B,,).B,, (3B,,B,,B,, | (3(B,,A,)[B,,A,] (3[B,,A,][B,,A,][B,,A,] | %33
 (3[B,,G,]B,,B,, (3B,,B,,B,, | (3[B,,G,][B,,G,][B,,G,] (3[B,,G,][B,,G,][B,,G,] | %35
 (3[B,,G,][B,,G,][B,,G,] (3[B,,G,][B,,G,][B,,G,] | %36
 (3[A,,G,][A,,G,][A,,G,] (3[A,,G,][A,,G,][A,,G,] | %37
 (3[A,,G,][A,,G,][A,,G,] (3[A,,G,][A,,G,][A,,G,] | %38
 (3[A,,G,][A,,G,][A,,G,] (3[A,,G,][A,,G,][A,,G,] | %39
 (3[^A,,F,][A,,F,][A,,F,] (3[A,,F,][A,,F,][A,,F,] | (3[B,,F,][B,,F,][B,,F,] (3[D,F,][D,F,][D,F,] | %41
 (3F,F,F, (3[F,,F,][F,,F,][F,,F,] | ([B,,F,]2 ^C,D, | E,2 D,^C,) | (D,2 E,2 | F,2) [F,,F,]2 | %46
 B,,2 [D,F,]2 | !>![E,G,]4 | [^E,^G,]4 | F,2 [F,,F,]2 | B,,2 [D,F,]2 | [E,G,]4 | [_E,G,]4 | %53
 D,2 [D,,D,]2 | [G,,D,]2 z2 |"_ben marcato"!mp! (G,2 B,>C | D2 B,G,) | E2 E>E | A,3 (A, | %59
 (!>!=C2) B,2 | A,2 B,>C) | .D2 .D,2 | G,4 | (E2 G>F) | .E2 .E,2 | (E2 G>F) | E3 E, | (!>!C2 B,2 | %68
 A,2 B,>C) | .D2 .D,2 | (G,2 B,D) | (_E2 D2 | C2 B,>C) | .D2 z2 | .D,2 z2 | %75
 !wedge!G,2 !wedge!G,,2 | !wedge!G,,,2 !wedge![G,,,G,,]2 | (([A,,,A,,]4 | [^A,,,^A,,]4)) | %79
 (3[B,,,B,,]B,,B,, (3B,,B,,B,, | (3B,,B,,B,, (3B,,B,,B,, | %81
 (3(!>!B,,[E,G,])[B,,E,G,] (3[B,,E,G,][B,,E,G,][B,,E,G,] | (3[B,,^D,F,]B,,B,, (3B,,B,,B,, | %83
 (3(B,,[F,A,])[B,,F,] (3[B,,F,A,][B,,F,A,][B,,F,A,] | (3[B,,E,G,]B,,B,, (3B,,B,,B,, | %85
 (3(B,,[G,B,])[B,,G,B,] (3[B,,G,B,][B,,G,B,][B,,G,B,] | (3([B,,F,A,]B,,).B,, (3B,,B,,B,, | %87
 (3(B,,A,)[B,,A,] (3[B,,A,][B,,A,][B,,A,] | (3[B,,G,]B,,B,, (3B,,B,,B,, | %89
 (3[B,,G,][B,,G,][B,,G,] (3[B,,G,][B,,G,][B,,G,] | %90
 (3[B,,G,][B,,G,][B,,G,] (3[B,,G,][B,,G,][B,,G,] | %91
 (3[A,,G,][A,,G,][A,,G,] (3[A,,G,][A,,G,][A,,G,] | %92
 (3[A,,G,][A,,G,][A,,G,] (3[A,,G,][A,,G,][A,,G,] | %93
 (3[A,,G,][A,,G,][A,,G,] (3[A,,G,][A,,G,][A,,G,] | %94
 (3[^A,,F,][A,,F,][A,,F,] (3[A,,F,][A,,F,][A,,F,] | (3[B,,F,][B,,F,][B,,F,] (3[D,F,][D,F,][D,F,] | %96
 (3F,F,F, (3[F,,F,][F,,F,][F,,F,] | ([B,,F,]2 ^C,D, | E,2 D,^C,) | (D,2 E,2) | .F,2 .F,,2 | %101
 B,,2 [D,F,]2 | !>![E,G,]4 | !>![^E,^G,]4 | F,2 F,,2 | B,,2 [D,F,]2 | [E,G,]4 | [C,G,]4 | %108
 B,,2 B,,2 | B,,2 [B,,,B,,]2 |!p! E,,2 z2 | F,,2 F,,>F,, | B,,,2 z2 | E,,2 E,,>F,, | G,,2 z2 | %115
 A,,2 B,,>C, | B,,2 B,,,2 | E,,2 z2 | z4 | [E,,E,]2 [E,,E,]>[E,,E,] | [E,,E,]2 z2 | %121
 [E,,E,]2 [E,,E,]>[E,,E,] | [E,,E,]2 z2 |!fff! [C,,C,]2 [C,,C,]>[C,,C,] | [C,,C,]4- | [C,,C,]4- | %126
 [C,,C,]4 | [=B,,,=B,,]4- | [=B,,,=B,,]4 |!p! E,,4- | E,,4- |!<(! E,,4!<)! | E,,4 | %133
!pp! [E,,B,,]4- | (B,,E,G,F,) | (E,3 B,, | A,,G,,A,,B,,) | E,,4 | E,,4 | E,,4- | !fermata!E,,4 |] %141
V:4
 E,,4- | E,,2 z2 | x4 | x4 | x4 | x4 | x4 | x4 | x4 | x4 | x4 | x4 | x4 | x4 | x4 | x4 | x4 | x4 | %18
 x4 | x4 | x4 | x4 | x4 | x4 | x4 | x4 | x4 | x4 | x4 | x4 | x4 | x4 | x4 | x4 | x4 | x4 | x4 | %37
 x4 | x4 | x4 | x4 | x4 | x4 | x4 | x4 | x4 | x4 | x4 | x4 | x4 | x4 | x4 | x4 | x4 | x4 | x4 | %56
 x4 | x4 | x4 | x4 | x4 | x4 | x4 | x4 | x4 | x4 | x4 | x4 | x4 | x4 | x4 | x4 | x4 | x4 | x4 | %75
 x4 | x4 | x4 | x4 | x4 | x4 | x4 | x4 | x4 | x4 | x4 | x4 | x4 | x4 | x4 | x4 | x4 | x4 | x4 | %94
 x4 | x4 | x4 | x4 | x4 | x4 | x4 | x4 | x4 | x4 | x4 | x4 | x4 | x4 | x4 | x4 | x4 | x4 | x4 | %113
 x4 | x4 | x4 | x4 | x4 | x4 | x4 | x4 | x4 | x4 | x4 | x4 | x4 | x4 | x4 | x4 | x4 | x4 | x4 | %132
 x4 | x4 | E,,2 z2 | x4 | x4 | x4 | x4 | x4 | x4 |] %141

